!!!SOCIAL_FUNCTION:	love songs
!!!PDT:	1909
!!!OTL: No_134.krn
!!!REG: Great_Lakes
!!!LANG: Non-Tone
!!!LING_GROUP: Algonquin
**kern
*staff1
*clefG2
*k[b-]
*M3/8
8A/
=1
4c/
8c/
=2
4c/
8c/
=3
4cc\
8b-\
=4
16g/LK
8.f/
8b-/J
=5
4b-\
8bn\
=6
4cc\
8g/
=7
8b-/L
8g/
8f/J
=8
4d/
8c/
=9
16.B-/LL
32G/JJk
[4G/
=10
4G/]
8G/
=11
4B-/
8c/
=12
8d/L
8f/
8g/J
=13
4.b-;\
=14
4g/
8f/
=15
8.d/L
16c/K
8c/J
=16
4.c/
=17
4c/
8c/
=18
4c/
8c/
=19
4cc\
8b-\
=20
32g/LLK
16.f/JJ
[4f/
=21
4f/]
8b-\
=22
4cc\
8g/
=23
8b-/L
8g/
8f/J
=24
4d/
8c/
=25
16.B-/LL
32G/JJk
[4G/
=26
4G/]
8G/
=27
4B-/
8c/
=28
8d/L
8f/
8g/J
=29
24f/LL
24g/
24f/JJ
8d/L
8c/J
=30
4.c/
==
*-
